TileServer und Tiles/svg/9/47_42.svg

<?xml version='1.0' encoding='UTF-8' standalone='no'?>
<svg xmlns="http://www.w3.org/2000/svg" width="497pt" viewBox="0 0 497 279" xmlns:xlink="http://www.w3.org/1999/xlink" height="279pt">
 <defs style="stroke:none;" overflow="visible">
  <path id="glyph0-5" d="M 0.28125 0 L 1.40625 -5.359375 L 2.28125 -5.359375 L 1.734375 -2.78125 L 4.234375 -5.359375 L 5.328125 -5.359375 L 2.6875 -2.703125 L 4.46875 0 L 3.421875 0 L 1.71875 -2.671875 L 1.15625 0 Z M 0.28125 0 "/>
  <path id="glyph0-4" d="M 0.28125 0 L 1.421875 -5.359375 L 2.140625 -5.359375 L 2.03125 -4.375 L 2.078125 -4.375 C 2.203125 -4.539062 2.34375 -4.707031 2.5 -4.875 C 2.664062 -5.039062 2.859375 -5.175781 3.078125 -5.28125 C 3.296875 -5.394531 3.539062 -5.453125 3.8125 -5.453125 C 4.175781 -5.453125 4.457031 -5.347656 4.65625 -5.140625 C 4.851562 -4.929688 4.972656 -4.640625 5.015625 -4.265625 L 5.046875 -4.265625 C 5.179688 -4.460938 5.335938 -4.648438 5.515625 -4.828125 C 5.703125 -5.015625 5.910156 -5.164062 6.140625 -5.28125 C 6.367188 -5.394531 6.617188 -5.453125 6.890625 -5.453125 C 7.304688 -5.453125 7.625 -5.335938 7.84375 -5.109375 C 8.070312 -4.890625 8.1875 -4.566406 8.1875 -4.140625 C 8.1875 -3.984375 8.175781 -3.832031 8.15625 -3.6875 C 8.132812 -3.550781 8.109375 -3.410156 8.078125 -3.265625 L 7.390625 0 L 6.5 0 L 7.21875 -3.359375 C 7.25 -3.515625 7.269531 -3.644531 7.28125 -3.75 C 7.300781 -3.851562 7.3125 -3.957031 7.3125 -4.0625 C 7.3125 -4.257812 7.253906 -4.414062 7.140625 -4.53125 C 7.035156 -4.65625 6.863281 -4.71875 6.625 -4.71875 C 6.414062 -4.71875 6.1875 -4.632812 5.9375 -4.46875 C 5.695312 -4.3125 5.472656 -4.066406 5.265625 -3.734375 C 5.054688 -3.398438 4.894531 -2.960938 4.78125 -2.421875 L 4.265625 0 L 3.390625 0 L 4.09375 -3.359375 C 4.15625 -3.660156 4.1875 -3.878906 4.1875 -4.015625 C 4.1875 -4.234375 4.132812 -4.40625 4.03125 -4.53125 C 3.9375 -4.65625 3.773438 -4.71875 3.546875 -4.71875 C 3.328125 -4.71875 3.09375 -4.640625 2.84375 -4.484375 C 2.601562 -4.328125 2.375 -4.070312 2.15625 -3.71875 C 1.945312 -3.363281 1.78125 -2.894531 1.65625 -2.3125 L 1.15625 0 Z M 0.28125 0 "/>
  <path id="glyph0-3" d="M 2.484375 0.078125 C 1.859375 0.078125 1.367188 -0.101562 1.015625 -0.46875 C 0.660156 -0.84375 0.484375 -1.347656 0.484375 -1.984375 C 0.484375 -2.390625 0.535156 -2.796875 0.640625 -3.203125 C 0.753906 -3.609375 0.921875 -3.976562 1.140625 -4.3125 C 1.367188 -4.644531 1.648438 -4.914062 1.984375 -5.125 C 2.328125 -5.332031 2.71875 -5.4375 3.15625 -5.4375 C 3.78125 -5.4375 4.269531 -5.25 4.625 -4.875 C 4.976562 -4.5 5.15625 -3.992188 5.15625 -3.359375 C 5.15625 -2.953125 5.097656 -2.546875 4.984375 -2.140625 C 4.867188 -1.734375 4.703125 -1.363281 4.484375 -1.03125 C 4.265625 -0.695312 3.988281 -0.425781 3.65625 -0.21875 C 3.320312 -0.0195312 2.929688 0.078125 2.484375 0.078125 Z M 2.53125 -0.65625 C 2.851562 -0.65625 3.144531 -0.765625 3.40625 -0.984375 C 3.664062 -1.203125 3.875 -1.519531 4.03125 -1.9375 C 4.1875 -2.363281 4.265625 -2.867188 4.265625 -3.453125 C 4.265625 -3.660156 4.226562 -3.859375 4.15625 -4.046875 C 4.082031 -4.234375 3.960938 -4.390625 3.796875 -4.515625 C 3.640625 -4.640625 3.429688 -4.703125 3.171875 -4.703125 C 2.804688 -4.703125 2.488281 -4.578125 2.21875 -4.328125 C 1.945312 -4.078125 1.738281 -3.742188 1.59375 -3.328125 C 1.445312 -2.910156 1.375 -2.453125 1.375 -1.953125 C 1.375 -1.535156 1.472656 -1.210938 1.671875 -0.984375 C 1.878906 -0.765625 2.164062 -0.65625 2.53125 -0.65625 Z M 2.53125 -0.65625 "/>
  <path id="glyph0-2" d="M -0.21875 2.40625 L 1.421875 -5.359375 L 2.140625 -5.359375 L 2.015625 -4.359375 L 2.0625 -4.359375 C 2.289062 -4.648438 2.550781 -4.90625 2.84375 -5.125 C 3.144531 -5.34375 3.476562 -5.453125 3.84375 -5.453125 C 4.28125 -5.453125 4.628906 -5.296875 4.890625 -4.984375 C 5.160156 -4.679688 5.296875 -4.226562 5.296875 -3.625 C 5.296875 -3.132812 5.234375 -2.664062 5.109375 -2.21875 C 4.992188 -1.769531 4.820312 -1.367188 4.59375 -1.015625 C 4.375 -0.671875 4.101562 -0.398438 3.78125 -0.203125 C 3.457031 -0.00390625 3.09375 0.09375 2.6875 0.09375 C 2.332031 0.09375 2.039062 0.00390625 1.8125 -0.171875 C 1.59375 -0.359375 1.425781 -0.570312 1.3125 -0.8125 L 1.265625 -0.8125 C 1.265625 -0.707031 1.25 -0.5625 1.21875 -0.375 C 1.195312 -0.1875 1.171875 -0.03125 1.140625 0.09375 L 0.65625 2.40625 Z M 2.625 -0.625 C 2.882812 -0.625 3.125 -0.707031 3.34375 -0.875 C 3.570312 -1.050781 3.765625 -1.28125 3.921875 -1.5625 C 4.078125 -1.851562 4.195312 -2.175781 4.28125 -2.53125 C 4.363281 -2.894531 4.40625 -3.265625 4.40625 -3.640625 C 4.40625 -4.359375 4.117188 -4.71875 3.546875 -4.71875 C 3.328125 -4.71875 3.101562 -4.632812 2.875 -4.46875 C 2.644531 -4.3125 2.429688 -4.09375 2.234375 -3.8125 C 2.046875 -3.53125 1.890625 -3.207031 1.765625 -2.84375 C 1.648438 -2.488281 1.59375 -2.109375 1.59375 -1.703125 C 1.59375 -1.390625 1.675781 -1.128906 1.84375 -0.921875 C 2.007812 -0.722656 2.269531 -0.625 2.625 -0.625 Z M 2.625 -0.625 "/>
  <path id="glyph0-1" d="M 3.375 0.09375 C 2.519531 0.09375 1.863281 -0.148438 1.40625 -0.640625 C 0.945312 -1.140625 0.71875 -1.816406 0.71875 -2.671875 C 0.71875 -3.285156 0.796875 -3.867188 0.953125 -4.421875 C 1.117188 -4.972656 1.359375 -5.457031 1.671875 -5.875 C 1.992188 -6.300781 2.375 -6.632812 2.8125 -6.875 C 3.257812 -7.125 3.765625 -7.25 4.328125 -7.25 C 5.140625 -7.25 5.769531 -7 6.21875 -6.5 C 6.675781 -6 6.90625 -5.3125 6.90625 -4.4375 C 6.90625 -3.820312 6.828125 -3.238281 6.671875 -2.6875 C 6.523438 -2.144531 6.300781 -1.664062 6 -1.25 C 5.707031 -0.832031 5.335938 -0.503906 4.890625 -0.265625 C 4.453125 -0.0234375 3.945312 0.09375 3.375 0.09375 Z M 3.40625 -0.6875 C 3.800781 -0.6875 4.15625 -0.785156 4.46875 -0.984375 C 4.78125 -1.191406 5.046875 -1.46875 5.265625 -1.8125 C 5.484375 -2.164062 5.648438 -2.566406 5.765625 -3.015625 C 5.890625 -3.472656 5.953125 -3.953125 5.953125 -4.453125 C 5.953125 -5.085938 5.800781 -5.578125 5.5 -5.921875 C 5.195312 -6.273438 4.785156 -6.453125 4.265625 -6.453125 C 3.867188 -6.453125 3.507812 -6.351562 3.1875 -6.15625 C 2.863281 -5.96875 2.585938 -5.703125 2.359375 -5.359375 C 2.140625 -5.015625 1.96875 -4.613281 1.84375 -4.15625 C 1.726562 -3.695312 1.671875 -3.207031 1.671875 -2.6875 C 1.671875 -2.0625 1.820312 -1.570312 2.125 -1.21875 C 2.4375 -0.863281 2.863281 -0.6875 3.40625 -0.6875 Z M 3.40625 -0.6875 "/>
  <path id="glyph0-0" d="M 0.9375 0 L 0.9375 -7.140625 L 5.046875 -7.140625 L 5.046875 0 Z M 1.453125 -0.515625 L 4.546875 -0.515625 L 4.546875 -6.625 L 1.453125 -6.625 Z M 1.453125 -0.515625 "/>
 </defs>
 <image width="497" xlink:href="svg/9/47_42.jpg" height="279"/>
 <g>
  <path d="M 377.269531 141.152344 C 376.414062 141.152344 375.757812 140.910156 375.300781 140.417969 C 374.839844 139.917969 374.613281 139.242188 374.613281 138.386719 C 374.613281 137.773438 374.691406 137.191406 374.847656 136.636719 C 375.011719 136.085938 375.253906 135.601562 375.566406 135.183594 C 375.886719 134.757812 376.269531 134.425781 376.707031 134.183594 C 377.152344 133.933594 377.660156 133.808594 378.222656 133.808594 C 379.035156 133.808594 379.664062 134.058594 380.113281 134.558594 C 380.570312 135.058594 380.800781 135.746094 380.800781 136.621094 C 380.800781 137.238281 380.722656 137.820312 380.566406 138.371094 C 380.417969 138.914062 380.195312 139.394531 379.894531 139.808594 C 379.601562 140.226562 379.230469 140.554688 378.785156 140.792969 C 378.347656 141.035156 377.839844 141.152344 377.269531 141.152344 Z M 377.300781 140.371094 C 377.695312 140.371094 378.050781 140.273438 378.363281 140.074219 C 378.675781 139.867188 378.941406 139.589844 379.160156 139.246094 C 379.378906 138.894531 379.542969 138.492188 379.660156 138.042969 C 379.785156 137.585938 379.847656 137.105469 379.847656 136.605469 C 379.847656 135.972656 379.695312 135.480469 379.394531 135.136719 C 379.089844 134.785156 378.679688 134.605469 378.160156 134.605469 C 377.761719 134.605469 377.402344 134.707031 377.082031 134.902344 C 376.757812 135.089844 376.480469 135.355469 376.253906 135.699219 C 376.035156 136.042969 375.863281 136.445312 375.738281 136.902344 C 375.621094 137.363281 375.566406 137.851562 375.566406 138.371094 C 375.566406 138.996094 375.714844 139.488281 376.019531 139.839844 C 376.332031 140.195312 376.757812 140.371094 377.300781 140.371094 Z M 377.300781 140.371094 " transform=" rotate(  340 393.52 138.058) " style="fill:none;stroke-width:2;stroke-linecap:butt;stroke-linejoin:round;stroke:rgb(100%,100%,100%);stroke-opacity:0.6;stroke-miterlimit:10;"/>
  <path d="M 380.886719 143.464844 L 382.527344 135.699219 L 383.246094 135.699219 L 383.121094 136.699219 L 383.167969 136.699219 C 383.394531 136.410156 383.65625 136.152344 383.949219 135.933594 C 384.25 135.714844 384.582031 135.605469 384.949219 135.605469 C 385.386719 135.605469 385.734375 135.761719 385.996094 136.074219 C 386.265625 136.378906 386.402344 136.832031 386.402344 137.433594 C 386.402344 137.925781 386.339844 138.394531 386.214844 138.839844 C 386.097656 139.289062 385.925781 139.691406 385.699219 140.042969 C 385.480469 140.386719 385.207031 140.660156 384.886719 140.855469 C 384.5625 141.054688 384.199219 141.152344 383.792969 141.152344 C 383.4375 141.152344 383.144531 141.0625 382.917969 140.886719 C 382.699219 140.699219 382.53125 140.488281 382.417969 140.246094 L 382.371094 140.246094 C 382.371094 140.351562 382.355469 140.496094 382.324219 140.683594 C 382.300781 140.871094 382.277344 141.027344 382.246094 141.152344 L 381.761719 143.464844 Z M 383.730469 140.433594 C 383.988281 140.433594 384.230469 140.351562 384.449219 140.183594 C 384.675781 140.007812 384.871094 139.777344 385.027344 139.496094 C 385.183594 139.207031 385.300781 138.882812 385.386719 138.527344 C 385.46875 138.164062 385.511719 137.792969 385.511719 137.417969 C 385.511719 136.699219 385.222656 136.339844 384.652344 136.339844 C 384.433594 136.339844 384.207031 136.425781 383.980469 136.589844 C 383.75 136.746094 383.535156 136.964844 383.339844 137.246094 C 383.152344 137.527344 382.996094 137.851562 382.871094 138.214844 C 382.753906 138.570312 382.699219 138.949219 382.699219 139.355469 C 382.699219 139.667969 382.78125 139.929688 382.949219 140.136719 C 383.113281 140.335938 383.375 140.433594 383.730469 140.433594 Z M 383.730469 140.433594 " transform=" rotate(  340 393.52 138.058) " style="fill:none;stroke-width:2;stroke-linecap:butt;stroke-linejoin:round;stroke:rgb(100%,100%,100%);stroke-opacity:0.6;stroke-miterlimit:10;"/>
  <path d="M 389.378906 141.136719 C 388.753906 141.136719 388.261719 140.957031 387.910156 140.589844 C 387.554688 140.214844 387.378906 139.710938 387.378906 139.074219 C 387.378906 138.667969 387.429688 138.261719 387.535156 137.855469 C 387.648438 137.449219 387.816406 137.082031 388.035156 136.746094 C 388.261719 136.414062 388.542969 136.144531 388.878906 135.933594 C 389.222656 135.726562 389.613281 135.621094 390.050781 135.621094 C 390.675781 135.621094 391.164062 135.808594 391.519531 136.183594 C 391.871094 136.558594 392.050781 137.066406 392.050781 137.699219 C 392.050781 138.105469 391.992188 138.511719 391.878906 138.917969 C 391.761719 139.324219 391.597656 139.695312 391.378906 140.027344 C 391.160156 140.363281 390.882812 140.632812 390.550781 140.839844 C 390.214844 141.039062 389.824219 141.136719 389.378906 141.136719 Z M 389.425781 140.402344 C 389.746094 140.402344 390.039062 140.292969 390.300781 140.074219 C 390.558594 139.855469 390.769531 139.539062 390.925781 139.121094 C 391.082031 138.695312 391.160156 138.191406 391.160156 137.605469 C 391.160156 137.398438 391.121094 137.199219 391.050781 137.011719 C 390.976562 136.824219 390.855469 136.667969 390.691406 136.542969 C 390.535156 136.417969 390.324219 136.355469 390.066406 136.355469 C 389.699219 136.355469 389.382812 136.480469 389.113281 136.730469 C 388.839844 136.980469 388.632812 137.316406 388.488281 137.730469 C 388.339844 138.148438 388.269531 138.605469 388.269531 139.105469 C 388.269531 139.523438 388.367188 139.847656 388.566406 140.074219 C 388.773438 140.292969 389.058594 140.402344 389.425781 140.402344 Z M 389.425781 140.402344 " transform=" rotate(  340 393.52 138.058) " style="fill:none;stroke-width:2;stroke-linecap:butt;stroke-linejoin:round;stroke:rgb(100%,100%,100%);stroke-opacity:0.6;stroke-miterlimit:10;"/>
  <path d="M 392.808594 141.058594 L 393.949219 135.699219 L 394.667969 135.699219 L 394.558594 136.683594 L 394.605469 136.683594 C 394.730469 136.519531 394.871094 136.351562 395.027344 136.183594 C 395.191406 136.019531 395.386719 135.882812 395.605469 135.777344 C 395.824219 135.664062 396.066406 135.605469 396.339844 135.605469 C 396.703125 135.605469 396.984375 135.710938 397.183594 135.917969 C 397.378906 136.128906 397.5 136.417969 397.542969 136.792969 L 397.574219 136.792969 C 397.707031 136.597656 397.863281 136.410156 398.042969 136.230469 C 398.230469 136.042969 398.4375 135.894531 398.667969 135.777344 C 398.894531 135.664062 399.144531 135.605469 399.417969 135.605469 C 399.832031 135.605469 400.152344 135.722656 400.371094 135.949219 C 400.597656 136.167969 400.714844 136.492188 400.714844 136.917969 C 400.714844 137.074219 400.703125 137.226562 400.683594 137.371094 C 400.660156 137.507812 400.636719 137.648438 400.605469 137.792969 L 399.917969 141.058594 L 399.027344 141.058594 L 399.746094 137.699219 C 399.777344 137.542969 399.796875 137.414062 399.808594 137.308594 C 399.828125 137.207031 399.839844 137.101562 399.839844 136.996094 C 399.839844 136.800781 399.78125 136.644531 399.667969 136.527344 C 399.5625 136.402344 399.390625 136.339844 399.152344 136.339844 C 398.941406 136.339844 398.714844 136.425781 398.464844 136.589844 C 398.222656 136.746094 398 136.992188 397.792969 137.324219 C 397.582031 137.660156 397.421875 138.097656 397.308594 138.636719 L 396.792969 141.058594 L 395.917969 141.058594 L 396.621094 137.699219 C 396.683594 137.398438 396.714844 137.179688 396.714844 137.042969 C 396.714844 136.824219 396.660156 136.652344 396.558594 136.527344 C 396.464844 136.402344 396.300781 136.339844 396.074219 136.339844 C 395.855469 136.339844 395.621094 136.417969 395.371094 136.574219 C 395.128906 136.730469 394.902344 136.988281 394.683594 137.339844 C 394.472656 137.695312 394.308594 138.164062 394.183594 138.746094 L 393.683594 141.058594 Z M 392.808594 141.058594 " transform=" rotate(  340 393.52 138.058) " style="fill:none;stroke-width:2;stroke-linecap:butt;stroke-linejoin:round;stroke:rgb(100%,100%,100%);stroke-opacity:0.6;stroke-miterlimit:10;"/>
  <path d="M 401.558594 141.058594 L 402.683594 135.699219 L 403.558594 135.699219 L 403.011719 138.277344 L 405.511719 135.699219 L 406.605469 135.699219 L 403.964844 138.355469 L 405.746094 141.058594 L 404.699219 141.058594 L 402.996094 138.386719 L 402.433594 141.058594 Z M 401.558594 141.058594 " transform=" rotate(  340 393.52 138.058) " style="fill:none;stroke-width:2;stroke-linecap:butt;stroke-linejoin:round;stroke:rgb(100%,100%,100%);stroke-opacity:0.6;stroke-miterlimit:10;"/>
  <path d="M 408.417969 141.136719 C 407.792969 141.136719 407.300781 140.957031 406.949219 140.589844 C 406.59375 140.214844 406.417969 139.710938 406.417969 139.074219 C 406.417969 138.667969 406.46875 138.261719 406.574219 137.855469 C 406.6875 137.449219 406.855469 137.082031 407.074219 136.746094 C 407.300781 136.414062 407.582031 136.144531 407.917969 135.933594 C 408.261719 135.726562 408.652344 135.621094 409.089844 135.621094 C 409.714844 135.621094 410.203125 135.808594 410.558594 136.183594 C 410.910156 136.558594 411.089844 137.066406 411.089844 137.699219 C 411.089844 138.105469 411.03125 138.511719 410.917969 138.917969 C 410.800781 139.324219 410.636719 139.695312 410.417969 140.027344 C 410.199219 140.363281 409.921875 140.632812 409.589844 140.839844 C 409.253906 141.039062 408.863281 141.136719 408.417969 141.136719 Z M 408.464844 140.402344 C 408.785156 140.402344 409.078125 140.292969 409.339844 140.074219 C 409.597656 139.855469 409.808594 139.539062 409.964844 139.121094 C 410.121094 138.695312 410.199219 138.191406 410.199219 137.605469 C 410.199219 137.398438 410.160156 137.199219 410.089844 137.011719 C 410.015625 136.824219 409.894531 136.667969 409.730469 136.542969 C 409.574219 136.417969 409.363281 136.355469 409.105469 136.355469 C 408.738281 136.355469 408.421875 136.480469 408.152344 136.730469 C 407.878906 136.980469 407.671875 137.316406 407.527344 137.730469 C 407.378906 138.148438 407.308594 138.605469 407.308594 139.105469 C 407.308594 139.523438 407.40625 139.847656 407.605469 140.074219 C 407.8125 140.292969 408.097656 140.402344 408.464844 140.402344 Z M 408.464844 140.402344 " transform=" rotate(  340 393.52 138.058) " style="fill:none;stroke-width:2;stroke-linecap:butt;stroke-linejoin:round;stroke:rgb(100%,100%,100%);stroke-opacity:0.6;stroke-miterlimit:10;"/>
  <g transform=" rotate(  340 393.52 138.058) " style="fill:rgb(30.196078%,50.196078%,70.196078%);fill-opacity:1;">
   <use xlink:href="#glyph0-1" y="141.058348" x="373.89548"/>
   <use xlink:href="#glyph0-2" y="141.058348" x="381.10548"/>
   <use xlink:href="#glyph0-3" y="141.058348" x="386.89548"/>
   <use xlink:href="#glyph0-4" y="141.058348" x="392.52548"/>
   <use xlink:href="#glyph0-5" y="141.058348" x="401.27548"/>
   <use xlink:href="#glyph0-3" y="141.058348" x="405.93548"/>
  </g>
 </g>
</svg>

<svg xmlns="http://www.w3.org/2000/svg" xmlns:xlink="http://www.w3.org/1999/xlink" viewBox="0 0 497 279"> <defs overflow="visible" style="stroke:none">  <path id="e" d="m.3 0 1.1-5.4h.9l-.6 2.6 2.5-2.6h1.1L2.7-2.7 4.5 0h-1L1.6-2.7 1.2 0Zm0 0"/>  <path id="d" d="m.3 0 1.1-5.4h.7v1l.4-.5.6-.4.7-.2c.4 0 .7.2.9.5.2 0 .3.4.3.7l.5-.5.6-.5.9-.2c.3 0 .6.2.9.5.1 0 .2.4.2.9v.4l-.1.4L7.4 0h-.9l.7-3.4v-.4l.2-.2c-.1-.3-.1-.4-.3-.5 0-.2-.1-.2-.5-.2-.2 0-.4 0-.6.2l-.7.8c-.3.3-.4.7-.5 1.3L4.3 0h-1l.9-3.4v-1.1c-.4-.2-.5-.2-.8-.2-.1 0-.3 0-.6.2l-.6.8c-.3.3-.4.7-.5 1.4L1.2 0Zm0 0"/>  <path id="c" d="M2.5 0C1.9 0 1.4 0 1-.4.7-.8.5-1.3.5-2l.1-1.2a4 4 0 0 1 .5-1.1c.3-.3.5-.7.9-.8.3-.2.7-.3 1.2-.3.6 0 1 .2 1.4.4.4.5.6 1.1.6 1.6L5-2a4 4 0 0 1-.5.9c-.2.5-.5.8-.8 1L2.5 0Zm0-.6c.5-.1.6-.1 1-.4.1-.2.3-.5.5-1 .2-.3.3-.8.3-1.4L4.2-4a1 1 0 0 0-.4-.5l-.6-.2c-.4 0-.7.1-1 .4-.2.2-.5.6-.6 1A4 4 0 0 0 1.4-2c0 .5 0 .8.3 1 .2.2.5.3.8.3Zm0-.1"/>  <path id="b" d="m-.2 2.4 1.6-7.8h.7v1l.7-.6c.3-.3.7-.5 1-.5.5 0 .8.2 1 .5.5.3.6.8.6 1.4-.1.5-.1 1-.3 1.4L4.6-1l-.8.8a2 2 0 0 1-1.1.3C2.3 0 2 0 1.8-.2a2 2 0 0 1-.5-.6v.4L1 .1.7 2.4Zm2.8-3c.4 0 .5-.1.7-.4.3 0 .5-.3.7-.6a4 4 0 0 0 .3-1 5 5 0 0 0 .1-.9c0-.9-.3-1.2-.9-1.2-.2 0-.4 0-.5.2l-.8.7-.4 1c-.2.3-.2.7-.2 1.1 0 .3 0 .6.2.8.2.2.5.3.8.3Zm0 0"/>  <path id="a" d="M3.4 0c-.9 0-1.5 0-2-.5S.7-1.8.7-2.6.8-4 1-4.5c0-.5.4-.9.7-1.5l1.1-.9a3 3 0 0 1 1.5-.3c.8-.1 1.5.2 2 .7.3.5.5 1.2.5 2 .2.8.2 1.4-.1 1.9L6-1.2l-1.1.9c-.4.3-1 .3-1.5.3Zm0-.6a2 2 0 0 0 1-.4c.5-.2.6-.5 1-.8L5.8-3 6-4.5c0-.5-.2-1-.5-1.4-.3-.4-.7-.6-1.2-.6a2 2 0 0 0-1.1.3l-.8.8-.6 1.2a6 6 0 0 0-.1 1.5c0 .7.1 1.1.3 1.5.4.2 1 .5 1.4.5Zm0-.1"/>  <path d="M1 0v-7.1h4V0Zm.4-.5h3.1v-6.1h-3Zm.1 0"/> </defs> <image xlink:href="svg/9/47_42.jpg" width="497" height="279"/> <path d="M377.3 141.2c-.9 0-1.5-.3-2-.8s-.7-1.2-.7-2c0-.6 0-1.2.2-1.8l.8-1.4c.3-.4.7-.8 1.1-1a3 3 0 0 1 1.5-.4c.8 0 1.5.3 2 .8.3.4.5 1.1.5 2 .1.6.1 1.2-.1 1.8l-.7 1.4c-.3.4-.7.8-1.1 1-.5.2-1 .4-1.5.4Zm0-.8a2 2 0 0 0 1-.4c.5-.1.7-.4 1-.8l.4-1.2.1-1.4c0-.6-.1-1.1-.4-1.5-.4-.3-.7-.5-1.2-.5a2 2 0 0 0-1.2.4l-.7.7c-.3.3-.4.7-.6 1.2a6 6 0 0 0-.1 1.5c0 .6.1 1 .4 1.4.3.4.8.6 1.3.6Zm3.6 3.1 1.6-7.8h.7v1l.7-.8 1.1-.3c.4 0 .7.2 1 .5.3.3.4.7.4 1.3 0 .6 0 1-.2 1.4l-.5 1.2c-.2.4-.5.7-.8 1a2 2 0 0 1-1.1.2c-.4 0-.8-.2-.9-.3a2 2 0 0 1-.5-.7v.5l-.3.5-.3 2.3Zm2.8-3c.3-.1.5-.2.7-.4.3-.1.6-.3.6-.6a4 4 0 0 0 .4-1 5 5 0 0 0 .1-1c0-.9-.3-1.3-.8-1.3-.3.1-.5.2-.7.4-.3.1-.5.4-.7.6l-.3 1-.3 1.2c0 .3 0 .5.2.6.2.3.5.4.8.4Zm5.7.6c-.6 0-1.1-.1-1.5-.5-.3-.4-.5-.9-.5-1.6l.1-1.1a4 4 0 0 1 .5-1.2c.3-.3.5-.6 1-.7.2-.3.6-.4 1-.4.7 0 1 .2 1.5.6.5.4.6.8.6 1.5l-.2 1.2a4 4 0 0 1-.5 1.1c-.2.4-.5.6-.8.8l-1.2.3Zm0-.7.9-.3c.3-.2.5-.6.6-1.1.2-.3.3-.9.3-1.4l-.2-.6a1 1 0 0 0-.3-.5l-.7-.1c-.3 0-.6 0-1 .3-.2.3-.4.6-.5 1a4 4 0 0 0-.2 1.4c0 .4 0 .7.3 1 .2.2.4.3.8.3Zm3.4.6 1.2-5.2h.7l-.1.9.4-.5.6-.4.7-.2c.4 0 .7.1.9.4.2.1.3.4.3.8l.5-.6.7-.4.7-.2c.4 0 .8.1 1 .4.2.2.3.5.3 1v.8l-.9 3.2h-.8l.7-3.3.1-.4v-.3l-.1-.5-.5-.2c-.3 0-.5.1-.7.3-.3.1-.5.4-.7.7l-.5 1.3-.5 2.5h-.9l.7-3.4.1-.7-.1-.5-.6-.2c-.1 0-.4.1-.6.3-.4.1-.5.4-.7.7l-.5 1.4-.5 2.4Zm8.8 0 1-5.2h1.1l-.7 2.5 2.5-2.6h1.1l-2.6 2.7 1.7 2.6h-1l-1.7-2.6-.6 2.6Zm6.8.1c-.6 0-1.1-.1-1.4-.5-.4-.4-.6-.9-.6-1.6 0-.3 0-.7.2-1.1a4 4 0 0 1 .4-1.2l.9-.7 1.2-.4c.6 0 1.1.2 1.5.6.3.4.4.8.4 1.5 0 .4 0 .8-.1 1.2a4 4 0 0 1-.5 1.1c-.2.4-.4.6-.8.8-.3.2-.7.3-1.2.3Zm0-.7c.5 0 .8-.1 1.1-.3l.5-1.1.2-1.4-.1-.6a1 1 0 0 0-.4-.5l-.6-.1c-.4 0-.7 0-1 .3l-.5 1a4 4 0 0 0-.3 1.4c0 .4.1.7.3 1 .2.2.5.3.9.3Zm.1 0" style="fill:none;stroke-width:2;stroke-linecap:butt;stroke-linejoin:round;stroke:#fff;stroke-opacity:.6;stroke-miterlimit:10" transform=" rotate(  340 393.52 138.058) "/> <g style="fill:#4d80b3;fill-opacity:1" transform=" rotate(  340 393.52 138.058) ">  <use xlink:href="#a" x="373.9" y="141.1"/>  <use xlink:href="#b" x="381.1" y="141.1"/>  <use xlink:href="#c" x="386.9" y="141.1"/>  <use xlink:href="#d" x="392.5" y="141.1"/>  <use xlink:href="#e" x="401.3" y="141.1"/>  <use xlink:href="#c" x="405.9" y="141.1"/> </g></svg>
